svgs/light/ornament.svg

<svg xmlns="http://www.w3.org/2000/svg" viewBox="0 0 384 512"><!-- Font Awesome Pro 6.0.0-alpha2 by @fontawesome - https://fontawesome.com License - https://fontawesome.com/license (Commercial License) --><path d="M288 154.168V96C288 78.328 273.674 64 256 64H237.062C238.85 58.973 240 53.641 240 48C240 21.492 218.51 0 192 0S144 21.492 144 48C144 53.641 145.15 58.973 146.938 64H128C110.326 64 96 78.328 96 96V154.168C38.725 187.391 0 249.023 0 320C0 426.039 85.961 512 192 512S384 426.039 384 320C384 249.023 345.275 187.391 288 154.168ZM192 32C200.822 32 208 39.176 208 48S200.822 64 192 64S176 56.824 176 48S183.178 32 192 32ZM128 96H256V144H128V96ZM123.512 176H260.488C283.709 187.098 303.607 203.781 319.076 224H64.924C80.393 203.781 100.291 187.098 123.512 176ZM192 480C139.936 480 94.053 454.625 64.814 416H319.186C289.947 454.625 244.064 480 192 480ZM338.438 384H45.562C36.945 364.367 32 342.781 32 320C32 297.172 37.002 275.59 45.699 256H338.301C346.998 275.59 352 297.172 352 320C352 342.781 347.055 364.367 338.438 384Z"/></svg>

<svg xmlns="http://www.w3.org/2000/svg" viewBox="0 0 384 512"><!--! Font Awesome Pro 6.0.0-alpha3 by @fontawesome - https://fontawesome.com License - https://fontawesome.com/license (Commercial License) --><path d="M287.1 153.9L288 96c0-17.67-14.37-32-32.04-32h-18.9C238.8 58.97 240 53.64 240 48c0-26.51-21.52-48-48.02-48S144 21.49 144 48c0 5.641 1.15 10.97 2.938 16H127.1C110.3 64 96 78.33 96 96L95.99 153.9C38.72 187.2 0 249 0 320c0 106 85.95 192 191.1 192S384 426 384 320C384 249 345.3 187.2 287.1 153.9zM191.1 32C200.8 32 208 39.18 208 48S200.8 64 192 64S176 56.82 176 48S183.1 32 191.1 32zM128 96h128v48H128V96zM123.5 176h136.1c23.22 11.1 43.12 27.78 58.59 48H64.92C80.39 203.8 100.3 187.1 123.5 176zM192 480c-52.06 0-97.95-25.38-127.2-64h254.4C289.9 454.6 244.1 480 192 480zM338.4 384H45.56C36.95 364.4 32 342.8 32 320c0-22.83 5.002-44.41 13.7-64h292.6C346.1 275.6 352 297.2 352 320C352 342.8 347.1 364.4 338.4 384z"/></svg>
